;FLAVOR:UltiGCode
;TIME:1715
;MATERIAL:3141
;MATERIAL2:0
;NOZZLE_DIAMETER:0.4
;MINX:89.854
;MINY:90.722
;MINZ:0.17
;MAXX:133.146
;MAXY:131.798
;MAXZ:19.02
;TARGET_MACHINE.NAME:Ultimaker 2+
;Generated with Cura_SteamEngine 5.6.0
M82 ;absolute extrusion mode
G0 F3000 Y50 ;avoid prime blob
G92 E0
G92 E0
G10
;LAYER_COUNT:126
;LAYER:0
M107
G0 F9000 X90.944 Y94.218 Z0.27
;TYPE:SKIRT
G11
G1 F1800 X93.511 Y91.725 E0.38646
G1 X96.583 Y90.722 E0.73547
G1 X104.397 Y90.722 E1.57939
G1 X106.128 Y91.104 E1.77083
G1 X106.33 Y91.186 E1.79438
G1 X108.407 Y90.722 E2.02422
G1 X115.686 Y90.722 E2.81035
G1 X117.196 Y91.225 E2.98224
G1 X118.732 Y90.722 E3.1568
G1 X126.716 Y90.722 E4.01907
G1 X129.334 Y91.612 E4.31771
G1 X129.65 Y91.812 E4.3581
G1 X132.143 Y94.379 E4.74456
G1 X133.146 Y97.451 E5.09357
G1 X133.146 Y112.956 E6.76811
G1 X132.498 Y115.157 E7.01591
G1 X131.869 Y116.233 E7.15051
G1 X132.666 Y118.674 E7.42784
G1 X132.666 Y124.977 E8.10856
G1 X132.246 Y126.905 E8.32167
G1 X131.136 Y128.725 E8.5519
G1 X128.99 Y130.807 E8.87482
G1 X125.933 Y131.798 E9.22189
G1 X116.668 Y131.798 E10.22251
G1 X114.127 Y130.959 E10.51151
G1 X111.811 Y129.241 E10.82294
G1 X111.454 Y128.623 E10.90002
G1 X110.84 Y129.466 E11.01266
G1 X108.677 Y131.192 E11.31152
G1 X105.954 Y131.798 E11.6128
G1 X97.155 Y131.798 E12.56309
G1 X95.227 Y131.378 E12.7762
G1 X93.407 Y130.268 E13.00643
G1 X91.325 Y128.122 E13.32935
G1 X90.334 Y125.065 E13.67642
G1 X90.334 Y118.375 E14.39894
G1 X91.085 Y116.164 E14.65113
G1 X90.955 Y115.963 E14.67698
G1 X89.854 Y113.038 E15.01452
G1 X89.854 Y97.152 E16.73021
G1 X90.744 Y94.534 E17.02884
G1 X90.944 Y94.218 E17.06923
G0 F9000 X91.223 Y94.505
G1 F1800 X93.724 Y92.076 E17.44576
G1 X96.646 Y91.122 E17.77773
G1 X104.352 Y91.122 E18.60998
G1 X106.042 Y91.495 E18.79689
G1 X106.287 Y91.605 E18.8259
G1 X108.449 Y91.122 E19.06515
G1 X115.62 Y91.122 E19.83962
G1 X117.194 Y91.646 E20.01878
G1 X118.795 Y91.122 E20.20072
G1 X126.649 Y91.122 E21.04895
G1 X129.205 Y91.991 E21.34051
G1 X129.363 Y92.091 E21.36071
G1 X131.792 Y94.592 E21.73724
G1 X132.746 Y97.514 E22.06921
G1 X132.746 Y112.897 E23.73057
G1 X132.127 Y114.999 E23.96723
G1 X131.631 Y115.848 E24.07342
G1 X131.406 Y116.103 E24.11015
G1 X132.266 Y118.737 E24.4094
G1 X132.266 Y124.933 E25.07857
G1 X131.869 Y126.756 E25.28007
G1 X130.823 Y128.471 E25.49702
G1 X128.778 Y130.455 E25.80474
G1 X125.869 Y131.398 E26.13501
G1 X116.733 Y131.398 E27.12169
G1 X114.312 Y130.598 E27.39707
G1 X112.116 Y128.969 E27.69236
G1 X111.493 Y127.891 E27.82683
G1 X110.548 Y129.187 E28.00006
G1 X108.499 Y130.822 E28.28317
G1 X105.912 Y131.398 E28.56941
G1 X97.199 Y131.398 E29.51041
G1 X95.376 Y131.001 E29.71191
G1 X93.661 Y129.955 E29.92886
G1 X91.677 Y127.91 E30.23658
G1 X90.734 Y125.001 E30.56685
G1 X90.734 Y118.442 E31.27522
G1 X91.533 Y116.091 E31.54339
G1 X91.329 Y115.822 E31.57985
G1 X90.254 Y112.966 E31.90943
G1 X90.254 Y97.219 E33.6101
G1 X91.123 Y94.663 E33.90167
G1 X91.223 Y94.505 E33.92186
G0 F9000 X91.502 Y94.792
G1 F1800 X93.937 Y92.427 E34.28847
G1 X96.709 Y91.522 E34.60339
G1 X104.307 Y91.522 E35.42398
G1 X105.956 Y91.886 E35.60636
G1 X106.295 Y92.054 E35.64722
G1 X106.495 Y91.968 E35.67073
G1 X108.491 Y91.522 E35.89161
G1 X115.554 Y91.522 E36.65442
G1 X117.192 Y92.067 E36.84086
G1 X118.858 Y91.522 E37.03017
G1 X126.582 Y91.522 E37.86436
G1 X129.076 Y92.37 E38.14886
G1 X131.441 Y94.805 E38.51546
G1 X132.346 Y97.577 E38.83039
G1 X132.346 Y112.838 E40.47857
G1 X131.756 Y114.841 E40.70409
G1 X131.286 Y115.646 E40.80476
G1 X130.898 Y116.061 E40.86612
G1 X131.048 Y116.295 E40.89614
G1 X131.866 Y118.8 E41.18074
G1 X131.866 Y124.889 E41.83835
G1 X131.492 Y126.607 E42.02824
G1 X130.51 Y128.217 E42.23191
G1 X128.566 Y130.103 E42.52443
G1 X125.805 Y130.998 E42.83789
G1 X116.797 Y130.998 E43.81076
G1 X114.497 Y130.238 E44.07237
G1 X112.421 Y128.697 E44.35159
G1 X111.531 Y127.159 E44.5435
G1 X110.258 Y128.906 E44.77696
G1 X108.32 Y130.453 E45.04477
G1 X105.87 Y130.998 E45.31584
G1 X97.243 Y130.998 E46.24755
G1 X95.525 Y130.624 E46.43744
G1 X93.915 Y129.642 E46.64111
G1 X92.029 Y127.698 E46.93363
G1 X91.134 Y124.937 E47.2471
G1 X91.134 Y118.509 E47.94132
G1 X91.92 Y116.197 E48.20505
G1 X92.02 Y116.035 E48.22561
G1 X91.703 Y115.681 E48.27693
G1 X90.654 Y112.894 E48.59855
G1 X90.654 Y97.286 E50.28421
G1 X91.502 Y94.792 E50.56871
G0 F9000 X91.85 Y95.012
G1 F1800 X94.15 Y92.778 E50.91499
G1 X96.772 Y91.922 E51.21288
G1 X104.262 Y91.922 E52.0218
G1 X105.87 Y92.277 E52.19964
G1 X106.285 Y92.504 E52.25073
G1 X106.582 Y92.358 E52.28647
G1 X108.533 Y91.922 E52.50238
G1 X115.488 Y91.922 E53.25352
G1 X117.19 Y92.488 E53.44723
G1 X118.921 Y91.922 E53.64392
G1 X126.515 Y91.922 E54.46407
G1 X128.856 Y92.718 E54.73112
G1 X131.09 Y95.018 E55.0774
G1 X131.946 Y97.64 E55.37529
G1 X131.946 Y112.779 E57.0103
G1 X131.385 Y114.683 E57.22467
G1 X130.941 Y115.444 E57.31982
G1 X130.372 Y116.028 E57.40788
G1 X130.668 Y116.419 E57.46085
G1 X131.466 Y118.863 E57.73851
G1 X131.466 Y124.845 E58.38457
G1 X131.115 Y126.458 E58.56285
G1 X130.197 Y127.963 E58.75324
G1 X128.354 Y129.751 E59.03056
G1 X125.741 Y130.598 E59.32722
G1 X116.861 Y130.598 E60.28626
G1 X114.684 Y129.879 E60.53387
G1 X112.725 Y128.424 E60.79742
G1 X111.67 Y126.602 E61.0248
G1 X111.497 Y126.076 E61.0846
G1 X111.225 Y126.9 E61.17832
G1 X109.968 Y128.626 E61.40892
G1 X108.142 Y130.083 E61.66121
G1 X105.828 Y130.598 E61.91724
G1 X97.287 Y130.598 E62.83967
G1 X95.674 Y130.247 E63.01795
G1 X94.169 Y129.329 E63.20834
G1 X92.381 Y127.486 E63.48566
G1 X91.534 Y124.873 E63.78232
G1 X91.534 Y118.576 E64.4624
G1 X92.299 Y116.326 E64.71906
G1 X92.569 Y116.003 E64.76452
G1 X92.077 Y115.54 E64.83749
G1 X91.054 Y112.822 E65.15114
G1 X91.054 Y97.353 E66.82179
G1 X91.85 Y95.012 E67.08883
G0 F9000 X92.198 Y95.232
G1 F1800 X94.363 Y93.129 E67.4148
G1 X96.835 Y92.322 E67.69565
G1 X104.217 Y92.322 E68.4929
G1 X105.784 Y92.668 E68.66621
G1 X106.277 Y92.966 E68.72843
G1 X106.669 Y92.748 E68.77687
G1 X108.575 Y92.322 E68.9878
G1 X115.422 Y92.322 E69.72727
G1 X117.188 Y92.909 E69.92826
G1 X118.984 Y92.322 E70.13233
G1 X126.448 Y92.322 E70.93844
G1 X128.636 Y93.066 E71.18803
G1 X130.739 Y95.231 E71.514
G1 X131.546 Y97.703 E71.79484
G1 X131.546 Y112.72 E73.41668
G1 X131.014 Y114.525 E73.61991
G1 X130.621 Y115.198 E73.70408
G1 X129.829 Y116.012 E73.82674
G1 X130.288 Y116.543 E73.90254
G1 X131.066 Y118.926 E74.17327
G1 X131.066 Y124.801 E74.80777
G1 X130.738 Y126.309 E74.97445
G1 X129.884 Y127.709 E75.15156
G1 X128.142 Y129.399 E75.41368
G1 X125.677 Y130.198 E75.69354
G1 X116.926 Y130.198 E76.63864
G1 X114.869 Y129.518 E76.87262
G1 X113.031 Y128.153 E77.11988
G1 X112.016 Y126.401 E77.33856
G1 X111.51 Y124.761 E77.52392
G1 X110.865 Y126.715 E77.74615
G1 X109.676 Y128.347 E77.96422
G1 X107.964 Y129.713 E78.20076
G1 X105.786 Y130.198 E78.44175
G1 X97.331 Y130.198 E79.35489
G1 X95.823 Y129.87 E79.52156
G1 X94.423 Y129.016 E79.69867
G1 X92.733 Y127.274 E79.96079
G1 X91.934 Y124.809 E80.24065
G1 X91.934 Y118.643 E80.90658
G1 X92.678 Y116.455 E81.15617
G1 X93.148 Y115.998 E81.22697
G1 X92.418 Y115.312 E81.33516
G1 X91.454 Y112.75 E81.63079
G1 X91.454 Y97.42 E83.28643
G1 X92.198 Y95.232 E83.53602
G0 F9000 X92.546 Y95.452
G1 F1800 X94.576 Y93.48 E83.84168
G1 X96.898 Y92.722 E84.10548
G1 X104.172 Y92.722 E84.89107
G1 X105.698 Y93.059 E85.05985
G1 X106.27 Y93.442 E85.1342
G1 X106.756 Y93.138 E85.19611
G1 X108.617 Y92.722 E85.40205
G1 X115.356 Y92.722 E86.12987
G1 X117.186 Y93.33 E86.33813
G1 X119.047 Y92.722 E86.54957
G1 X126.381 Y92.722 E87.34164
G1 X128.416 Y93.414 E87.57378
G1 X130.388 Y95.444 E87.87944
G1 X131.146 Y97.766 E88.14324
G1 X131.146 Y112.661 E89.7519
G1 X130.643 Y114.367 E89.94399
G1 X130.301 Y114.952 E90.01717
G1 X129.271 Y116.012 E90.1768
G1 X129.908 Y116.667 E90.27547
G1 X130.666 Y118.989 E90.53927
G1 X130.666 Y124.757 E91.16222
G1 X130.361 Y126.16 E91.31728
G1 X129.571 Y127.455 E91.48111
G1 X127.93 Y129.047 E91.72803
G1 X125.613 Y129.798 E91.99109
G1 X116.99 Y129.798 E92.92237
G1 X115.056 Y129.159 E93.14235
G1 X113.335 Y127.88 E93.37392
G1 X112.385 Y126.24 E93.57862
G1 X111.522 Y123.446 E93.89443
G1 X110.505 Y126.53 E94.24515
G1 X109.384 Y128.068 E94.45069
G1 X107.786 Y129.343 E94.67148
G1 X105.744 Y129.798 E94.89742
G1 X97.375 Y129.798 E95.80127
G1 X95.972 Y129.493 E95.95634
G1 X94.677 Y128.703 E96.12017
G1 X93.085 Y127.062 E96.36709
G1 X92.334 Y124.745 E96.63014
G1 X92.334 Y118.71 E97.28192
G1 X93.026 Y116.675 E97.51406
G1 X93.728 Y115.993 E97.61977
G1 X92.759 Y115.083 E97.76333
G1 X91.854 Y112.678 E98.04085
G1 X91.854 Y97.487 E99.68148
G1 X92.546 Y95.452 E99.91362
G0 F9000 X92.894 Y95.672
G1 F1800 X94.789 Y93.831 E100.19896
G1 X96.961 Y93.122 E100.44572
G1 X104.127 Y93.122 E101.21965
G1 X105.538 Y93.434 E101.37571
G1 X106.276 Y93.927 E101.47157
G1 X106.843 Y93.528 E101.54645
G1 X108.659 Y93.122 E101.74742
G1 X115.29 Y93.122 E102.46356
G1 X117.184 Y93.751 E102.6791
G1 X119.11 Y93.122 E102.89792
G1 X126.314 Y93.122 E103.67595
G1 X128.196 Y93.762 E103.89064
G1 X130.037 Y95.657 E104.17598
G1 X130.746 Y97.829 E104.42274
G1 X130.746 Y112.602 E106.01822
G1 X130.272 Y114.209 E106.19917
G1 X129.981 Y114.707 E106.26146
G1 X128.713 Y116.012 E106.45797
G1 X129.557 Y116.88 E106.58873
G1 X130.266 Y119.052 E106.83549
G1 X130.266 Y124.713 E107.44687
G1 X129.984 Y126.011 E107.59033
G1 X129.258 Y127.201 E107.74088
G1 X127.718 Y128.695 E107.9726
G1 X125.549 Y129.398 E108.21885
G1 X117.055 Y129.398 E109.1362
G1 X115.243 Y128.799 E109.34232
G1 X113.639 Y127.607 E109.55815
G1 X112.754 Y126.079 E109.74885
G1 X111.534 Y122.131 E110.19513
G1 X110.145 Y126.345 E110.67433
G1 X109.092 Y127.789 E110.86734
G1 X107.608 Y128.973 E111.07237
G1 X105.702 Y129.398 E111.28328
G1 X97.419 Y129.398 E112.17784
G1 X96.121 Y129.116 E112.32129
G1 X94.931 Y128.39 E112.47184
G1 X93.437 Y126.85 E112.70357
G1 X92.734 Y124.681 E112.94982
G1 X92.734 Y118.777 E113.58745
G1 X93.374 Y116.895 E113.80214
G1 X94.307 Y115.988 E113.94267
G1 X93.1 Y114.854 E114.12153
G1 X92.254 Y112.606 E114.38094
G1 X92.254 Y97.554 E116.00655
G1 X92.894 Y95.672 E116.22124
G0 F9000 X93.242 Y95.892
G1 F1800 X95.002 Y94.182 E116.48626
G1 X97.024 Y93.522 E116.71598
G1 X104.082 Y93.522 E117.47824
G1 X105.381 Y93.809 E117.62192
G1 X106.297 Y94.422 E117.74096
G1 X106.93 Y93.918 E117.82834
G1 X108.701 Y93.522 E118.02433
G1 X115.225 Y93.522 E118.72893
G1 X117.044 Y94.121 E118.93575
G1 X117.215 Y94.222 E118.9572
G1 X117.429 Y94.091 E118.9843
G1 X119.173 Y93.522 E119.18243
G1 X126.247 Y93.522 E119.94642
G1 X127.976 Y94.11 E120.14365
G1 X129.686 Y95.87 E120.40868
G1 X130.346 Y97.892 E120.63839
G1 X130.346 Y112.543 E122.2207
G1 X129.888 Y114.096 E122.39556
G1 X129.694 Y114.428 E122.43709
G1 X128.155 Y116.012 E122.67561
G1 X129.206 Y117.093 E122.83844
G1 X129.866 Y119.115 E123.06816
G1 X129.866 Y124.669 E123.66799
G1 X129.607 Y125.862 E123.79984
G1 X128.945 Y126.947 E123.93711
G1 X127.506 Y128.343 E124.15363
G1 X125.485 Y128.998 E124.38308
G1 X117.119 Y128.998 E125.28661
G1 X115.43 Y128.44 E125.47872
G1 X113.944 Y127.335 E125.67871
G1 X113.122 Y125.916 E125.85582
G1 X111.546 Y120.816 E126.43232
G1 X109.785 Y126.16 E127.04
G1 X108.8 Y127.51 E127.22048
G1 X107.43 Y128.603 E127.40976
G1 X105.66 Y128.998 E127.60562
G1 X97.463 Y128.998 E128.4909
G1 X96.27 Y128.739 E128.62275
G1 X95.185 Y128.077 E128.76002
G1 X93.789 Y126.638 E128.97654
G1 X93.134 Y124.617 E129.20599
G1 X93.134 Y118.844 E129.82947
G1 X93.722 Y117.115 E130.02671
G1 X94.886 Y115.984 E130.20199
G1 X93.441 Y114.626 E130.41615
G1 X92.654 Y112.534 E130.65754
G1 X92.654 Y97.621 E132.26815
G1 X93.242 Y95.892 E132.46538
G0 F9000 X93.59 Y96.112
G1 F1800 X95.215 Y94.533 E132.71009
G1 X97.087 Y93.922 E132.92276
G1 X104.037 Y93.922 E133.67336
G1 X105.221 Y94.184 E133.80433
G1 X106.087 Y94.763 E133.91683
G1 X106.281 Y94.948 E133.94578
G1 X107.109 Y94.287 E134.06021
G1 X108.743 Y93.922 E134.24103
G1 X115.161 Y93.922 E134.93417
G1 X116.919 Y94.501 E135.13407
G1 X117.216 Y94.716 E135.17367
G1 X117.553 Y94.471 E135.21867
G1 X119.236 Y93.922 E135.40986
G1 X126.18 Y93.922 E136.15981
G1 X127.756 Y94.458 E136.33959
G1 X129.335 Y96.083 E136.5843
G1 X129.946 Y97.955 E136.79697
G1 X129.946 Y112.484 E138.3661
G1 X129.504 Y113.983 E138.53489
G1 X129.407 Y114.149 E138.55565
G1 X127.964 Y115.634 E138.77928
G1 X127.446 Y115.856 E138.84014
G1 X128.855 Y117.306 E139.0585
G1 X129.466 Y119.178 E139.27117
G1 X129.466 Y124.625 E139.85945
G1 X129.23 Y125.713 E139.97969
G1 X128.632 Y126.693 E140.10367
G1 X127.294 Y127.991 E140.305
G1 X125.421 Y128.598 E140.51764
G1 X117.184 Y128.598 E141.40724
G1 X115.617 Y128.08 E141.58548
G1 X114.248 Y127.062 E141.76973
G1 X113.491 Y125.755 E141.93285
G1 X111.866 Y120.497 E142.52722
G1 X111.785 Y118.97 E142.69237
G1 X112.519 Y117.294 E142.88997
G1 X112.693 Y117.08 E142.91976
G1 X112.411 Y117.061 E142.95029
G1 X111.823 Y116.83 E143.01851
G1 X111.421 Y117.083 E143.06981
G1 X111.187 Y117.144 E143.09593
G1 X110.363 Y117.101 E143.18504
G1 X110.832 Y117.845 E143.28003
G1 X111.289 Y119.266 E143.44124
G1 X111.127 Y120.81 E143.6089
G1 X109.425 Y125.975 E144.19623
G1 X108.508 Y127.231 E144.36418
G1 X107.252 Y128.233 E144.53771
G1 X105.618 Y128.598 E144.71853
G1 X97.507 Y128.598 E145.59452
G1 X96.419 Y128.362 E145.71475
G1 X95.439 Y127.764 E145.83874
G1 X94.141 Y126.426 E146.04007
G1 X93.534 Y124.553 E146.25271
G1 X93.534 Y118.911 E146.86205
G1 X94.07 Y117.335 E147.04183
G1 X95.466 Y115.979 E147.25202
G1 X93.782 Y114.397 E147.50156
G1 X93.054 Y112.462 E147.72484
G1 X93.054 Y97.688 E149.32043
G1 X93.59 Y96.112 E149.50021
G0 F9000 X93.938 Y96.332
G1 F1800 X95.428 Y94.884 E149.7246
G1 X97.15 Y94.322 E149.92023
G1 X103.992 Y94.322 E150.65917
G1 X105.064 Y94.559 E150.77774
G1 X105.865 Y95.095 E150.88183
G1 X106.247 Y95.486 E150.94086
G1 X107.287 Y94.657 E151.0845
G1 X108.785 Y94.322 E151.25028
G1 X115.097 Y94.322 E151.93198
G1 X116.794 Y94.881 E152.12494
G1 X117.214 Y95.241 E152.18468
G1 X117.677 Y94.851 E152.25006
G1 X119.299 Y94.322 E152.43432
G1 X126.113 Y94.322 E153.17023
G1 X127.536 Y94.806 E153.33256
G1 X128.984 Y96.296 E153.55695
G1 X129.546 Y98.018 E153.75258
G1 X129.546 Y112.425 E155.30854
G1 X129.12 Y113.87 E155.47124
G1 X127.677 Y115.355 E155.69487
G1 X126.38 Y115.799 E155.84292
G1 X127.056 Y116.029 E155.92004
G1 X128.504 Y117.519 E156.14443
G1 X129.066 Y119.241 E156.34006
G1 X129.066 Y124.581 E156.91678
G1 X128.853 Y125.562 E157.0252
G1 X128.317 Y126.441 E157.13639
G1 X127.081 Y127.64 E157.32237
G1 X125.36 Y128.198 E157.51776
G1 X117.248 Y128.198 E158.39386
G1 X115.804 Y127.721 E158.5581
G1 X114.553 Y126.79 E158.72651
G1 X113.859 Y125.592 E158.87604
G1 X112.262 Y120.425 E159.46012
G1 X112.189 Y119.043 E159.60958
G1 X112.885 Y117.454 E159.79694
G1 X113.723 Y116.607 E159.92562
G1 X112.557 Y116.689 E160.05186
G1 X111.781 Y116.384 E160.14191
G1 X111.208 Y116.745 E160.21505
G1 X109.445 Y116.652 E160.40572
G1 X109.829 Y117.004 E160.46198
G1 X110.466 Y118.016 E160.59112
G1 X110.882 Y119.309 E160.73781
G1 X110.733 Y120.726 E160.89169
G1 X109.065 Y125.79 E161.46751
G1 X108.216 Y126.952 E161.62294
G1 X107.074 Y127.863 E161.78071
G1 X105.576 Y128.198 E161.94649
G1 X97.551 Y128.198 E162.81319
G1 X96.57 Y127.985 E162.9216
G1 X95.691 Y127.449 E163.03279
G1 X94.492 Y126.213 E163.21877
G1 X93.934 Y124.492 E163.41416
G1 X93.934 Y118.978 E164.00968
G1 X94.418 Y117.555 E164.17201
G1 X95.908 Y116.107 E164.3964
G1 X96.522 Y115.907 E164.46614
G1 X95.696 Y115.646 E164.55969
G1 X94.123 Y114.168 E164.7928
G1 X93.454 Y112.39 E164.99797
G1 X93.454 Y97.755 E166.57855
G1 X93.938 Y96.332 E166.74088
G0 F9000 X94.286 Y96.552
G1 F1800 X95.641 Y95.235 E166.94496
G1 X97.213 Y94.722 E167.12354
G1 X103.946 Y94.722 E167.85071
G1 X104.907 Y94.935 E167.95701
G1 X105.605 Y95.402 E168.04771
G1 X106.267 Y96.079 E168.14998
G1 X106.475 Y95.817 E168.18611
G1 X107.466 Y95.026 E168.32305
G1 X108.827 Y94.722 E168.47366
G1 X115.033 Y94.722 E169.1439
G1 X116.669 Y95.261 E169.32994
G1 X117.209 Y95.802 E169.41249
G1 X117.801 Y95.231 E169.50132
G1 X119.362 Y94.722 E169.67864
G1 X126.046 Y94.722 E170.40051
G1 X127.316 Y95.154 E170.54539
