;FLAVOR:UltiGCode
;TIME:5217
;MATERIAL:11175
;MATERIAL2:0
;NOZZLE_DIAMETER:0.4
;MINX:70.294
;MINY:87.419
;MINZ:0.17
;MAXX:153.898
;MAXY:135.58
;MAXZ:20.67
;TARGET_MACHINE.NAME:Ultimaker 2+
;Generated with Cura_SteamEngine 5.6.0
M82 ;absolute extrusion mode
G0 F3000 Y50 ;avoid prime blob
G92 E0
G92 E0
G10
;LAYER_COUNT:137
;LAYER:0
M107
G0 F9000 X73.287 Y91.57 Z0.27
;TYPE:SKIRT
G11
G1 F1800 X75.49 Y89.836 E0.30278
G1 X77.613 Y88.913 E0.5528
G1 X79.925 Y88.442 E0.80763
G1 X82.06 Y88.911 E1.0437
G1 X83.879 Y89.738 E1.25951
G1 X84.1 Y89.607 E1.28725
G1 X86.801 Y88.732 E1.59389
G1 X91.847 Y88.732 E2.13885
G1 X94.061 Y89.484 E2.39138
G1 X94.267 Y89.349 E2.41798
G1 X97.185 Y88.252 E2.75466
G1 X121.895 Y88.252 E5.42334
G1 X124.097 Y88.901 E5.67127
G1 X125.165 Y89.527 E5.80497
G1 X127.619 Y88.732 E6.08356
G1 X131.886 Y88.732 E6.5444
G1 X133.464 Y89.269 E6.72442
G1 X134.885 Y88.141 E6.92036
G1 X137.252 Y87.487 E7.18558
G1 X139.016 Y87.419 E7.37623
G1 X140.743 Y87.491 E7.56291
G1 X142.634 Y87.735 E7.76883
G1 X144.54 Y88.418 E7.98749
G1 X146.446 Y89.343 E8.2163
G1 X147.742 Y90.169 E8.38228
G1 X148.432 Y90.702 E8.47644
G1 X149.855 Y92.064 E8.68918
G1 X150.768 Y93.154 E8.84274
G1 X151.442 Y94.133 E8.97111
G1 X152.427 Y95.967 E9.19594
G1 X152.796 Y96.887 E9.30299
G1 X153.32 Y98.716 E9.50847
G1 X153.575 Y100.224 E9.67365
G1 X153.664 Y101.455 E9.80694
G1 X153.898 Y111.473 E10.88918
G1 X153.877 Y121.737 E11.9977
G1 X153.782 Y122.988 E12.13319
G1 X153.59 Y124.134 E12.25869
G1 X153.093 Y125.911 E12.45797
G1 X152.607 Y127.131 E12.5998
G1 X151.829 Y128.62 E12.78124
G1 X151.305 Y129.428 E12.88524
G1 X150.042 Y130.982 E13.10152
G1 X149.036 Y131.965 E13.25342
G1 X147.879 Y132.883 E13.41293
G1 X146.43 Y133.795 E13.59784
G1 X145.041 Y134.468 E13.76453
G1 X142.385 Y135.458 E14.07066
G1 X139.817 Y135.58 E14.34832
G1 X137.152 Y135.527 E14.63619
G1 X134.575 Y134.801 E14.92534
G1 X133.249 Y133.598 E15.11871
G1 X131.581 Y134.142 E15.30819
G1 X127.708 Y134.142 E15.72647
G1 X125.78 Y133.722 E15.93958
G1 X125.157 Y133.342 E16.01839
G1 X124.901 Y133.523 E16.05225
G1 X121.979 Y134.622 E16.38941
G1 X97.267 Y134.622 E19.05831
G1 X95.066 Y133.974 E19.3061
G1 X93.996 Y133.348 E19.43999
G1 X91.545 Y134.142 E19.71824
G1 X86.89 Y134.142 E20.22098
G1 X84.951 Y133.72 E20.43529
G1 X83.924 Y133.088 E20.56553
G1 X82.253 Y134.037 E20.77307
G1 X79.533 Y134.285 E21.06805
G1 X77.209 Y133.875 E21.32292
G1 X74.453 Y132.444 E21.6583
G1 X72.386 Y130.26 E21.98306
G1 X71.246 Y128.386 E22.21996
G1 X70.447 Y125.99 E22.49273
G1 X70.294 Y123.96 E22.71259
G1 X70.306 Y97.781 E25.53993
G1 X70.865 Y95.375 E25.8067
G1 X71.893 Y93.339 E26.05302
G1 X73.287 Y91.57 E26.29626
G0 F9000 X73.573 Y91.853
G1 F1800 X75.695 Y90.183 E26.5879
G1 X77.733 Y89.297 E26.8279
G1 X79.921 Y88.851 E27.06907
G1 X81.934 Y89.293 E27.29165
G1 X83.916 Y90.194 E27.52679
G1 X84.223 Y89.988 E27.56672
G1 X86.865 Y89.132 E27.86665
G1 X91.78 Y89.132 E28.39747
G1 X94.134 Y89.932 E28.66599
G1 X94.408 Y89.723 E28.7032
G1 X97.257 Y88.652 E29.03192
G1 X121.836 Y88.652 E31.68645
G1 X123.939 Y89.272 E31.92324
G1 X124.786 Y89.768 E32.02925
G1 X125.038 Y89.989 E32.06545
G1 X127.683 Y89.132 E32.36573
G1 X131.819 Y89.132 E32.81241
G1 X133.541 Y89.718 E33.00886
G1 X135.069 Y88.505 E33.21956
G1 X137.314 Y87.885 E33.4711
G1 X139 Y87.819 E33.65333
G1 X140.692 Y87.888 E33.83622
G1 X142.541 Y88.127 E34.03757
G1 X144.365 Y88.778 E34.24673
G1 X146.271 Y89.703 E34.47554
G1 X147.497 Y90.486 E34.63265
G1 X148.187 Y91.019 E34.72681
G1 X149.548 Y92.321 E34.93023
G1 X150.461 Y93.411 E35.08379
G1 X151.112 Y94.359 E35.20799
G1 X152.056 Y96.116 E35.4234
G1 X152.411 Y96.997 E35.52598
G1 X152.935 Y98.826 E35.73146
G1 X153.176 Y100.253 E35.88776
G1 X153.264 Y101.464 E36.01889
G1 X153.498 Y111.472 E37.10005
G1 X153.478 Y121.707 E38.20543
G1 X153.387 Y122.922 E38.33702
G1 X153.195 Y124.068 E38.46251
G1 X152.721 Y125.763 E38.6526
G1 X152.235 Y126.983 E38.79443
G1 X151.493 Y128.402 E38.96737
G1 X150.969 Y129.21 E39.07137
G1 X149.762 Y130.696 E39.27813
G1 X148.756 Y131.679 E39.43004
G1 X147.666 Y132.544 E39.58032
G1 X146.217 Y133.456 E39.76523
G1 X144.901 Y134.093 E39.92313
G1 X142.304 Y135.061 E40.22246
G1 X139.798 Y135.18 E40.49341
G1 X137.211 Y135.128 E40.77287
G1 X134.774 Y134.441 E41.04632
G1 X133.346 Y133.146 E41.25452
G1 X131.518 Y133.742 E41.46217
G1 X127.752 Y133.742 E41.8689
G1 X125.929 Y133.345 E42.0704
G1 X125.123 Y132.853 E42.17238
G1 X124.76 Y133.149 E42.22297
G1 X121.907 Y134.222 E42.55216
G1 X97.326 Y134.222 E45.20691
G1 X95.224 Y133.603 E45.44356
G1 X94.375 Y133.107 E45.54976
G1 X94.124 Y132.886 E45.58587
G1 X91.481 Y133.742 E45.88592
G1 X86.934 Y133.742 E46.37699
G1 X85.102 Y133.343 E46.57949
G1 X83.932 Y132.624 E46.7278
G1 X82.13 Y133.647 E46.95159
G1 X79.552 Y133.882 E47.23117
G1 X77.338 Y133.491 E47.47398
G1 X74.699 Y132.121 E47.79511
G1 X72.706 Y130.015 E48.10826
G1 X71.61 Y128.214 E48.33595
G1 X70.842 Y125.912 E48.59804
G1 X70.694 Y123.96 E48.80946
G1 X70.706 Y97.828 E51.63172
G1 X71.244 Y95.511 E51.88861
G1 X72.231 Y93.556 E52.12513
G1 X73.573 Y91.853 E52.3593
G0 F9000 X73.857 Y92.138
G1 F1800 X75.9 Y90.53 E52.64009
G1 X77.853 Y89.681 E52.87008
G1 X79.917 Y89.26 E53.09758
G1 X81.808 Y89.675 E53.30667
G1 X83.746 Y90.556 E53.53659
G1 X83.931 Y90.686 E53.56101
G1 X84.346 Y90.369 E53.61741
G1 X86.929 Y89.532 E53.91065
G1 X91.713 Y89.532 E54.42732
G1 X94.025 Y90.318 E54.69105
G1 X94.189 Y90.42 E54.71191
G1 X94.549 Y90.097 E54.76415
G1 X97.329 Y89.052 E55.0849
G1 X121.777 Y89.052 E57.72528
G1 X123.781 Y89.643 E57.95093
G1 X124.584 Y90.113 E58.05142
G1 X124.982 Y90.482 E58.11003
G1 X125.164 Y90.369 E58.13317
G1 X127.747 Y89.532 E58.42642
G1 X131.752 Y89.532 E58.85896
G1 X133.619 Y90.167 E59.07193
G1 X135.253 Y88.869 E59.29731
G1 X137.376 Y88.283 E59.53517
G1 X138.984 Y88.219 E59.70897
G1 X140.641 Y88.285 E59.88807
G1 X142.446 Y88.518 E60.08462
G1 X144.23 Y89.155 E60.28921
G1 X146.056 Y90.04 E60.50836
G1 X147.252 Y90.803 E60.66158
G1 X147.942 Y91.336 E60.75574
G1 X149.241 Y92.578 E60.94984
G1 X150.154 Y93.668 E61.1034
G1 X150.782 Y94.585 E61.22343
G1 X151.685 Y96.266 E61.42952
G1 X152.026 Y97.107 E61.52753
G1 X152.55 Y98.936 E61.73301
G1 X152.777 Y100.282 E61.88043
G1 X152.864 Y101.473 E62.0094
G1 X153.098 Y111.471 E63.08948
G1 X153.079 Y121.678 E64.19183
G1 X152.992 Y122.856 E64.31941
G1 X152.8 Y124.002 E64.4449
G1 X152.349 Y125.615 E64.62578
G1 X151.863 Y126.835 E64.76761
G1 X151.157 Y128.184 E64.93205
G1 X150.633 Y128.992 E65.03606
G1 X149.482 Y130.41 E65.2333
G1 X148.476 Y131.393 E65.38521
G1 X147.453 Y132.205 E65.52627
G1 X146.004 Y133.117 E65.71118
G1 X144.761 Y133.718 E65.86029
G1 X142.223 Y134.664 E66.15281
G1 X139.779 Y134.78 E66.41706
G1 X137.269 Y134.729 E66.6882
G1 X134.973 Y134.082 E66.94582
G1 X133.443 Y132.694 E67.16893
G1 X131.455 Y133.342 E67.39475
G1 X127.796 Y133.342 E67.78992
G1 X126.078 Y132.968 E67.97981
G1 X125.072 Y132.354 E68.1071
G1 X124.619 Y132.775 E68.17389
G1 X121.835 Y133.822 E68.49512
G1 X97.385 Y133.822 E71.13572
G1 X95.382 Y133.232 E71.36123
G1 X94.577 Y132.762 E71.46191
G1 X94.181 Y132.392 E71.52044
G1 X93.998 Y132.506 E71.54372
G1 X91.417 Y133.342 E71.83673
G1 X86.978 Y133.342 E72.31614
G1 X85.255 Y132.967 E72.50658
G1 X83.941 Y132.159 E72.67318
G1 X82.007 Y133.257 E72.91336
G1 X79.57 Y133.479 E73.17765
G1 X77.467 Y133.108 E73.40828
G1 X74.943 Y131.797 E73.71545
G1 X73.027 Y129.773 E74.01645
G1 X71.973 Y128.041 E74.23542
G1 X71.238 Y125.836 E74.48644
G1 X71.094 Y123.96 E74.68965
G1 X71.106 Y97.876 E77.50672
G1 X71.624 Y95.646 E77.75397
G1 X72.571 Y93.771 E77.98083
G1 X73.857 Y92.138 E78.20532
G0 F9000 X74.144 Y92.421
G1 F1800 X76.104 Y90.878 E78.47472
G1 X77.975 Y90.064 E78.69509
G1 X79.913 Y89.669 E78.90869
G1 X81.684 Y90.058 E79.10452
G1 X83.581 Y90.92 E79.32956
G1 X83.943 Y91.204 E79.37925
G1 X84.469 Y90.75 E79.45429
G1 X86.993 Y89.932 E79.74084
G1 X91.646 Y89.932 E80.24337
G1 X93.896 Y90.697 E80.50003
G1 X94.221 Y90.969 E80.5458
G1 X94.69 Y90.471 E80.61968
G1 X97.401 Y89.452 E80.93247
G1 X121.718 Y89.452 E83.5587
G1 X123.623 Y90.014 E83.77321
G1 X124.382 Y90.458 E83.86818
G1 X124.956 Y91.015 E83.95456
G1 X125.287 Y90.75 E84.00035
G1 X127.811 Y89.932 E84.2869
G1 X131.685 Y89.932 E84.70529
G1 X133.697 Y90.616 E84.9348
G1 X135.437 Y89.234 E85.17478
G1 X137.439 Y88.681 E85.3991
G1 X138.968 Y88.619 E85.56437
G1 X140.59 Y88.682 E85.73967
G1 X142.351 Y88.909 E85.93144
G1 X144.095 Y89.532 E86.13144
G1 X145.841 Y90.377 E86.34093
G1 X147.007 Y91.12 E86.49026
G1 X147.697 Y91.653 E86.58442
G1 X148.934 Y92.835 E86.7692
G1 X149.847 Y93.925 E86.92276
G1 X150.452 Y94.811 E87.03863
G1 X151.315 Y96.417 E87.23553
G1 X151.641 Y97.217 E87.32883
G1 X152.165 Y99.046 E87.53431
G1 X152.378 Y100.311 E87.67285
G1 X152.464 Y101.482 E87.79966
G1 X152.698 Y111.47 E88.87866
G1 X152.68 Y121.649 E89.978
G1 X152.597 Y122.79 E90.10155
G1 X152.405 Y123.936 E90.22704
G1 X151.977 Y125.467 E90.39873
G1 X151.491 Y126.687 E90.54056
G1 X150.821 Y127.966 E90.6965
G1 X150.297 Y128.774 E90.80051
G1 X149.202 Y130.124 E90.98824
G1 X148.196 Y131.107 E91.14014
G1 X147.24 Y131.866 E91.27197
G1 X145.791 Y132.778 E91.45688
G1 X144.621 Y133.343 E91.5972
G1 X142.142 Y134.267 E91.88293
G1 X139.76 Y134.38 E92.14047
G1 X137.329 Y134.33 E92.40308
G1 X135.172 Y133.722 E92.64511
G1 X133.54 Y132.242 E92.88305
G1 X131.392 Y132.942 E93.12704
G1 X127.84 Y132.942 E93.51066
G1 X126.227 Y132.591 E93.68894
G1 X125.003 Y131.844 E93.84381
G1 X124.478 Y132.401 E93.92647
G1 X121.763 Y133.422 E94.23974
G1 X97.444 Y133.422 E96.86619
G1 X95.54 Y132.861 E97.08056
G1 X94.779 Y132.417 E97.17572
G1 X94.207 Y131.859 E97.26202
G1 X93.875 Y132.125 E97.30796
G1 X91.353 Y132.942 E97.59428
G1 X87.022 Y132.942 E98.06202
G1 X85.408 Y132.591 E98.24041
G1 X83.95 Y131.694 E98.42529
G1 X81.884 Y132.867 E98.68187
G1 X79.589 Y133.076 E98.93076
G1 X77.596 Y132.724 E99.14933
G1 X75.187 Y131.473 E99.44249
G1 X73.348 Y129.531 E99.73135
G1 X72.337 Y127.869 E99.94144
G1 X71.633 Y125.758 E100.18178
G1 X71.494 Y123.96 E100.37654
G1 X71.506 Y97.924 E103.18843
G1 X72.004 Y95.781 E103.42604
G1 X72.909 Y93.988 E103.64295
G1 X74.144 Y92.421 E103.85843
G0 F9000 X74.43 Y92.704
G1 F1800 X76.309 Y91.225 E104.11668
G1 X78.096 Y90.448 E104.32714
G1 X79.909 Y90.078 E104.52698
G1 X81.558 Y90.44 E104.70931
G1 X83.415 Y91.284 E104.92961
G1 X83.963 Y91.741 E105.00667
G1 X84.592 Y91.131 E105.1013
G1 X87.057 Y90.332 E105.38116
G1 X91.579 Y90.332 E105.86953
G1 X93.767 Y91.076 E106.11912
G1 X94.225 Y91.547 E106.19008
G1 X94.917 Y90.813 E106.29902
G1 X97.473 Y89.852 E106.59394
G1 X121.659 Y89.852 E109.20603
G1 X123.465 Y90.385 E109.40939
G1 X124.137 Y90.778 E109.49347
G1 X124.955 Y91.572 E109.61659
G1 X125.41 Y91.131 E109.68502
G1 X127.875 Y90.332 E109.96487
G1 X131.618 Y90.332 E110.36912
G1 X133.775 Y91.065 E110.61516
G1 X135.621 Y89.598 E110.86981
G1 X137.501 Y89.079 E111.08045
G1 X138.953 Y89.019 E111.2374
G1 X140.539 Y89.079 E111.40881
G1 X142.256 Y89.3 E111.59578
G1 X143.96 Y89.909 E111.79121
G1 X145.626 Y90.715 E111.99109
G1 X146.762 Y91.437 E112.13646
G1 X147.452 Y91.97 E112.23062
G1 X148.627 Y93.092 E112.40608
G1 X149.54 Y94.182 E112.55964
G1 X150.1 Y95.001 E112.6668
G1 X150.945 Y96.569 E112.85916
G1 X151.256 Y97.327 E112.94765
G1 X151.78 Y99.156 E113.15313
G1 X151.979 Y100.34 E113.2828
G1 X152.064 Y101.491 E113.40744
G1 X152.298 Y111.469 E114.48536
G1 X152.281 Y121.62 E115.58167
G1 X152.202 Y122.724 E115.70121
G1 X152.01 Y123.87 E115.8267
G1 X151.605 Y125.319 E115.98919
G1 X151.119 Y126.539 E116.13102
G1 X150.485 Y127.748 E116.27846
G1 X149.961 Y128.556 E116.38247
G1 X148.922 Y129.838 E116.56068
G1 X147.916 Y130.821 E116.71259
G1 X147.027 Y131.527 E116.83519
G1 X145.578 Y132.439 E117.0201
G1 X144.481 Y132.968 E117.15163
G1 X142.061 Y133.87 E117.43056
G1 X139.741 Y133.98 E117.6814
G1 X137.387 Y133.931 E117.93569
G1 X135.371 Y133.363 E118.16189
G1 X133.637 Y131.79 E118.41474
G1 X131.329 Y132.542 E118.6769
G1 X127.884 Y132.542 E119.04896
G1 X126.376 Y132.214 E119.21563
G1 X124.934 Y131.334 E119.39808
G1 X124.249 Y132.06 E119.50588
G1 X121.691 Y133.022 E119.80103
G1 X97.503 Y133.022 E122.41334
G1 X95.698 Y132.49 E122.61657
G1 X95.025 Y132.097 E122.70074
G1 X94.208 Y131.302 E122.82385
G1 X93.752 Y131.744 E122.89244
G1 X91.289 Y132.542 E123.17206
G1 X87.066 Y132.542 E123.62814
G1 X85.558 Y132.214 E123.79481
G1 X84.206 Y131.389 E123.96587
G1 X83.969 Y131.163 E124.00123
G1 X83.801 Y131.318 E124.02592
G1 X81.76 Y132.477 E124.27941
G1 X79.607 Y132.673 E124.51289
G1 X77.725 Y132.341 E124.71929
G1 X75.432 Y131.15 E124.99835
G1 X73.668 Y129.286 E125.27551
G1 X72.701 Y127.697 E125.4764
G1 X72.028 Y125.68 E125.70605
G1 X71.894 Y123.96 E125.89237
G1 X71.906 Y97.971 E128.69918
G1 X72.383 Y95.917 E128.92692
G1 X73.247 Y94.205 E129.13402
G1 X74.43 Y92.704 E129.34043
G0 F9000 X74.714 Y92.989
G1 F1800 X76.514 Y91.572 E129.58784
G1 X78.217 Y90.832 E129.78838
G1 X79.905 Y90.487 E129.97445
G1 X81.432 Y90.822 E130.14329
G1 X83.201 Y91.626 E130.35315
G1 X83.984 Y92.279 E130.46326
G1 X84.804 Y91.483 E130.58668
G1 X87.121 Y90.732 E130.84973
G1 X91.512 Y90.732 E131.32396
G1 X93.547 Y91.424 E131.5561
G1 X94.229 Y92.125 E131.66173
G1 X95.144 Y91.155 E131.80574
G1 X97.545 Y90.252 E132.08278
G1 X121.6 Y90.252 E134.68072
G1 X123.307 Y90.756 E134.87295
G1 X123.892 Y91.098 E134.94613
G1 X124.955 Y92.13 E135.10614
G1 X125.622 Y91.483 E135.2065
G1 X127.939 Y90.732 E135.46955
G1 X131.551 Y90.732 E135.85964
G1 X133.495 Y91.393 E136.0814
G1 X133.842 Y91.687 E136.13052
G1 X134.128 Y91.295 E136.18293
G1 X135.805 Y89.963 E136.41422
G1 X137.564 Y89.477 E136.61131
G1 X138.938 Y89.419 E136.75984
G1 X140.488 Y89.476 E136.92735
G1 X142.161 Y89.691 E137.10952
G1 X143.825 Y90.286 E137.30037
G1 X145.412 Y91.053 E137.49074
G1 X146.517 Y91.754 E137.63207
G1 X147.207 Y92.287 E137.72623
G1 X148.32 Y93.349 E137.89237
G1 X149.233 Y94.439 E138.04594
G1 X149.769 Y95.226 E138.14877
G1 X150.575 Y96.722 E138.3323
G1 X150.871 Y97.437 E138.41587
G1 X151.395 Y99.266 E138.62135
G1 X151.58 Y100.37 E138.74225
G1 X151.664 Y101.5 E138.86462
G1 X151.898 Y111.468 E139.94146
G1 X151.882 Y121.592 E141.03486
G1 X151.807 Y122.658 E141.15027
G1 X151.615 Y123.804 E141.27576
G1 X151.233 Y125.171 E141.42905
G1 X150.747 Y126.391 E141.57088
G1 X150.149 Y127.53 E141.70982
G1 X149.625 Y128.338 E141.81383
G1 X148.642 Y129.552 E141.98253
G1 X147.636 Y130.535 E142.13444
G1 X146.814 Y131.188 E142.24782
G1 X145.365 Y132.1 E142.43272
G1 X144.341 Y132.593 E142.55547
G1 X141.98 Y133.473 E142.82759
G1 X139.722 Y133.58 E143.07173
G1 X137.447 Y133.532 E143.31748
G1 X135.57 Y133.003 E143.5281
G1 X133.914 Y131.503 E143.76941
G1 X133.739 Y131.237 E143.80379
G1 X133.492 Y131.42 E143.83699
G1 X131.264 Y132.142 E144.08994
G1 X127.928 Y132.142 E144.45022
G1 X126.525 Y131.837 E144.60529
G1 X125.232 Y131.048 E144.76888
G1 X124.939 Y130.746 E144.81432
G1 X124.02 Y131.719 E144.95887
G1 X121.619 Y132.622 E145.23591
G1 X97.562 Y132.622 E147.83406
G1 X95.856 Y132.119 E148.02615
G1 X95.271 Y131.777 E148.09934
G1 X94.208 Y130.744 E148.25942
G1 X93.54 Y131.392 E148.35993
G1 X91.225 Y132.142 E148.62275
G1 X87.11 Y132.142 E149.06717
G1 X85.707 Y131.837 E149.22223
G1 X84.414 Y131.048 E149.38582
G1 X83.964 Y130.584 E149.45563
G1 X83.603 Y130.97 E149.5127
G1 X81.636 Y132.087 E149.757
G1 X79.626 Y132.27 E149.97498
G1 X77.854 Y131.957 E150.16932
G1 X75.676 Y130.826 E150.43437
G1 X73.989 Y129.044 E150.69939
G1 X73.064 Y127.524 E150.89155
G1 X72.424 Y125.604 E151.11013
G1 X72.294 Y123.96 E151.28824
G1 X72.306 Y98.019 E154.08987
G1 X72.763 Y96.052 E154.30796
G1 X73.587 Y94.42 E154.50541
G1 X74.714 Y92.989 E154.70213
G0 F9000 X75.001 Y93.272
G1 F1800 X76.718 Y91.92 E154.93815
G1 X78.339 Y91.215 E155.12906
G1 X79.901 Y90.896 E155.30124
G1 X81.306 Y91.204 E155.45658
G1 X82.987 Y91.968 E155.656
G1 X84.005 Y92.817 E155.79916
G1 X85.016 Y91.835 E155.95138
G1 X87.185 Y91.132 E156.19763
G1 X91.445 Y91.132 E156.65771
G1 X93.327 Y91.772 E156.8724
G1 X94.233 Y92.703 E157.0127
G1 X95.373 Y91.496 E157.192
G1 X97.617 Y90.652 E157.45093
G1 X121.541 Y90.652 E160.03472
G1 X123.149 Y91.127 E160.21581
