;FLAVOR:UltiGCode
;TIME:8774
;MATERIAL:9873
;MATERIAL2:0
;NOZZLE_DIAMETER:0.4
;MINX:77.496
;MINY:88.727
;MINZ:0.27
;MAXX:145.505
;MAXY:134.147
;MAXZ:20.77
;TARGET_MACHINE.NAME:Ultimaker 2+
;Generated with Cura_SteamEngine 5.6.0
M82 ;absolute extrusion mode
G0 F3000 Y50 ;avoid prime blob
G92 E0
G92 E0
G10
;LAYER_COUNT:206
;LAYER:0
M107
G0 F7200 X83.739 Y89.718 Z0.27
;TYPE:SKIRT
G11
G1 F1800 X86.796 Y88.727 E0.34707
G1 X91.852 Y88.727 E0.89312
G1 X94.47 Y89.617 E1.19175
G1 X94.786 Y89.817 E1.23214
G1 X97.279 Y92.384 E1.6186
G1 X98.282 Y95.456 E1.96762
G1 X98.283 Y102.39 E2.71649
G1 X97.863 Y104.326 E2.93044
G1 X96.753 Y106.146 E3.16067
G1 X94.607 Y108.228 E3.48359
G1 X91.55 Y109.219 E3.83066
G1 X86.885 Y109.219 E4.33448
G1 X84.957 Y108.799 E4.54759
G1 X83.137 Y107.689 E4.77782
G1 X81.053 Y105.541 E5.10105
G1 X80.064 Y102.49 E5.44743
G1 X80.063 Y95.556 E6.19631
G1 X80.483 Y93.62 E6.41026
G1 X81.593 Y91.8 E6.64049
G1 X83.739 Y89.718 E6.96341
G0 F7200 X83.951 Y90.07
G1 F1800 X86.86 Y89.127 E7.29368
G1 X91.785 Y89.127 E7.82558
G1 X94.341 Y89.996 E8.11714
G1 X94.499 Y90.096 E8.13734
G1 X96.928 Y92.597 E8.51387
G1 X97.882 Y95.519 E8.84584
G1 X97.883 Y102.347 E9.58326
G1 X97.486 Y104.177 E9.7855
G1 X96.44 Y105.892 E10.00245
G1 X94.395 Y107.876 E10.31017
G1 X91.486 Y108.819 E10.64044
G1 X86.929 Y108.819 E11.13259
G1 X85.106 Y108.422 E11.33409
G1 X83.391 Y107.376 E11.55105
G1 X81.405 Y105.329 E11.85907
G1 X80.464 Y102.426 E12.18865
G1 X80.463 Y95.599 E12.92597
G1 X80.86 Y93.769 E13.12821
G1 X81.906 Y92.054 E13.34516
G1 X83.951 Y90.07 E13.65288
G0 F7200 X84.163 Y90.422
G1 F1800 X86.924 Y89.527 E13.96634
G1 X91.718 Y89.527 E14.4841
G1 X94.212 Y90.375 E14.76859
G1 X96.577 Y92.81 E15.13519
G1 X97.482 Y95.582 E15.45012
G1 X97.483 Y102.304 E16.1761
G1 X97.109 Y104.028 E16.36662
G1 X96.127 Y105.638 E16.57029
G1 X94.183 Y107.524 E16.86281
G1 X91.422 Y108.419 E17.17628
G1 X86.973 Y108.419 E17.65677
G1 X85.255 Y108.045 E17.84666
G1 X83.645 Y107.063 E18.05033
G1 X81.757 Y105.117 E18.34316
G1 X80.864 Y102.362 E18.65594
G1 X80.863 Y95.642 E19.3817
G1 X81.237 Y93.918 E19.57222
G1 X82.219 Y92.308 E19.77589
G1 X84.163 Y90.422 E20.06841
G0 F7200 X84.375 Y90.774
G1 F1800 X86.988 Y89.927 E20.36507
G1 X91.651 Y89.927 E20.86868
G1 X93.992 Y90.723 E21.13572
G1 X96.226 Y93.023 E21.48201
G1 X97.082 Y95.645 E21.77989
G1 X97.083 Y102.261 E22.49442
G1 X96.732 Y103.879 E22.67323
G1 X95.814 Y105.384 E22.86362
G1 X93.971 Y107.172 E23.14094
G1 X91.358 Y108.019 E23.4376
G1 X87.017 Y108.019 E23.90643
G1 X85.404 Y107.668 E24.08471
G1 X83.899 Y106.75 E24.2751
G1 X82.109 Y104.905 E24.55273
G1 X81.264 Y102.298 E24.84871
G1 X81.263 Y95.685 E25.56291
G1 X81.614 Y94.067 E25.74172
G1 X82.532 Y92.562 E25.93211
G1 X84.375 Y90.774 E26.20943
G0 F7200 X84.587 Y91.126
G1 F1800 X87.052 Y90.327 E26.48929
G1 X91.584 Y90.327 E26.97874
G1 X93.772 Y91.071 E27.22834
G1 X95.875 Y93.236 E27.55431
G1 X96.682 Y95.708 E27.83515
G1 X96.683 Y102.218 E28.53823
G1 X96.355 Y103.73 E28.70532
G1 X95.501 Y105.13 E28.88243
G1 X93.759 Y106.82 E29.14456
G1 X91.294 Y107.619 E29.42441
G1 X87.061 Y107.619 E29.88158
G1 X85.553 Y107.291 E30.04825
G1 X84.153 Y106.437 E30.22536
G1 X82.461 Y104.693 E30.48779
G1 X81.664 Y102.234 E30.76696
G1 X81.663 Y95.728 E31.46961
G1 X81.991 Y94.216 E31.6367
G1 X82.845 Y92.816 E31.81381
G1 X84.587 Y91.126 E32.07594
G0 F7200 X84.799 Y91.478
G1 F1800 X87.116 Y90.727 E32.33899
G1 X91.517 Y90.727 E32.8143
G1 X93.552 Y91.419 E33.04644
G1 X95.524 Y93.449 E33.35209
G1 X96.282 Y95.771 E33.61589
G1 X96.283 Y102.175 E34.30752
G1 X95.978 Y103.581 E34.4629
G1 X95.188 Y104.876 E34.62673
G1 X93.547 Y106.468 E34.87366
G1 X91.23 Y107.219 E35.13671
G1 X87.105 Y107.219 E35.58221
G1 X85.702 Y106.914 E35.73727
G1 X84.407 Y106.124 E35.9011
G1 X82.812 Y104.48 E36.14849
G1 X82.064 Y102.173 E36.41041
G1 X82.063 Y95.771 E37.10183
G1 X82.368 Y94.365 E37.25721
G1 X83.158 Y93.07 E37.42104
G1 X84.799 Y91.478 E37.66796
G0 F7200 X85.011 Y91.83
G1 F1800 X87.18 Y91.127 E37.91421
G1 X91.45 Y91.127 E38.37537
G1 X93.332 Y91.767 E38.59006
G1 X95.173 Y93.662 E38.8754
G1 X95.882 Y95.834 E39.12216
G1 X95.883 Y102.132 E39.80234
G1 X95.601 Y103.432 E39.946
G1 X94.875 Y104.622 E40.09655
G1 X93.335 Y106.116 E40.32828
G1 X91.166 Y106.819 E40.57453
G1 X87.149 Y106.819 E41.00836
G1 X85.851 Y106.537 E41.15182
G1 X84.661 Y105.811 E41.30237
G1 X83.164 Y104.268 E41.53455
G1 X82.464 Y102.109 E41.77967
G1 X82.463 Y95.814 E42.45953
G1 X82.745 Y94.514 E42.6032
G1 X83.471 Y93.324 E42.75375
G1 X85.011 Y91.83 E42.98547
G0 F7200 X85.223 Y92.182
G1 F1800 X87.244 Y91.527 E43.21492
G1 X91.383 Y91.527 E43.66193
G1 X93.112 Y92.115 E43.85917
G1 X94.822 Y93.875 E44.12419
G1 X95.482 Y95.897 E44.3539
G1 X95.483 Y102.089 E45.02264
G1 X95.224 Y103.283 E45.15459
G1 X94.562 Y104.368 E45.29186
G1 X93.123 Y105.764 E45.50839
G1 X91.102 Y106.419 E45.73783
G1 X87.193 Y106.419 E46.16
G1 X86 Y106.16 E46.29185
G1 X84.915 Y105.498 E46.42912
G1 X83.516 Y104.056 E46.6461
G1 X82.864 Y102.045 E46.87442
G1 X82.863 Y95.857 E47.54273
G1 X83.122 Y94.663 E47.67468
G1 X83.784 Y93.578 E47.81195
G1 X85.223 Y92.182 E48.02847
G0 F7200 X85.435 Y92.534
G1 F1800 X87.308 Y91.927 E48.24111
G1 X91.316 Y91.927 E48.67398
G1 X92.892 Y92.463 E48.85376
G1 X94.471 Y94.088 E49.09847
G1 X95.082 Y95.96 E49.31114
G1 X95.083 Y102.046 E49.96843
G1 X94.847 Y103.134 E50.08867
G1 X94.249 Y104.114 E50.21265
G1 X92.911 Y105.412 E50.41398
G1 X91.038 Y106.019 E50.62662
G1 X87.237 Y106.019 E51.03713
G1 X86.149 Y105.783 E51.15737
G1 X85.169 Y105.185 E51.28136
G1 X83.868 Y103.844 E51.48314
G1 X83.264 Y101.981 E51.69466
G1 X83.263 Y95.9 E52.3514
G1 X83.499 Y94.812 E52.47164
G1 X84.097 Y93.832 E52.59563
G1 X85.435 Y92.534 E52.79696
G0 F7200 X85.648 Y92.885
G1 F1800 X87.369 Y92.327 E52.99235
G1 X91.249 Y92.327 E53.41139
G1 X92.672 Y92.811 E53.57372
G1 X94.12 Y94.301 E53.79811
G1 X94.682 Y96.023 E53.99374
G1 X94.683 Y102.002 E54.63947
G1 X94.47 Y102.983 E54.74789
G1 X93.934 Y103.862 E54.85908
G1 X92.698 Y105.061 E55.04506
G1 X90.977 Y105.619 E55.24045
G1 X87.281 Y105.619 E55.63962
G1 X86.3 Y105.406 E55.74804
G1 X85.421 Y104.87 E55.85923
G1 X84.22 Y103.632 E56.04551
G1 X83.664 Y101.917 E56.24022
G1 X83.663 Y95.944 E56.8853
G1 X83.876 Y94.963 E56.99372
G1 X84.412 Y94.084 E57.10491
G1 X85.648 Y92.885 E57.29088
G0 F7200 X85.861 Y93.236
G1 F1800 X87.43 Y92.727 E57.46903
G1 X91.182 Y92.727 E57.87425
G1 X92.452 Y93.159 E58.01912
G1 X93.769 Y94.514 E58.2232
G1 X94.282 Y96.086 E58.40179
G1 X94.283 Y101.958 E59.03596
G1 X94.093 Y102.832 E59.13256
G1 X93.619 Y103.61 E59.23095
G1 X92.485 Y104.71 E59.40157
G1 X90.916 Y105.219 E59.57972
G1 X87.325 Y105.219 E59.96755
G1 X86.451 Y105.029 E60.06414
G1 X85.673 Y104.555 E60.16253
G1 X84.571 Y103.419 E60.33346
G1 X84.064 Y101.856 E60.51093
G1 X84.063 Y95.988 E61.14467
G1 X84.253 Y95.114 E61.24127
G1 X84.727 Y94.336 E61.33966
G1 X85.861 Y93.236 E61.51028
G0 F7200 X86.073 Y93.587
G1 F1800 X87.491 Y93.127 E61.67128
G1 X91.115 Y93.127 E62.06268
G1 X92.232 Y93.507 E62.1901
G1 X93.418 Y94.727 E62.37386
G1 X93.882 Y96.149 E62.53541
G1 X93.883 Y101.914 E63.15803
G1 X93.716 Y102.681 E63.2428
G1 X93.302 Y103.361 E63.32878
G1 X92.273 Y104.359 E63.4836
G1 X90.855 Y104.819 E63.6446
G1 X87.369 Y104.819 E64.02109
G1 X86.602 Y104.652 E64.10586
G1 X85.922 Y104.238 E64.19184
G1 X84.922 Y103.207 E64.34696
G1 X84.464 Y101.795 E64.50728
G1 X84.463 Y96.032 E65.12969
G1 X84.63 Y95.265 E65.21446
G1 X85.044 Y94.585 E65.30044
G1 X86.073 Y93.587 E65.45526
G0 F7200 X86.285 Y93.938
G1 F1800 X87.552 Y93.527 E65.59911
G1 X91.048 Y93.527 E65.97668
G1 X92.012 Y93.855 E66.08665
G1 X93.067 Y94.94 E66.2501
G1 X93.482 Y96.212 E66.3946
G1 X93.483 Y101.87 E67.00566
G1 X93.339 Y102.53 E67.07862
G1 X92.985 Y103.112 E67.15219
G1 X92.061 Y104.008 E67.2912
G1 X90.794 Y104.419 E67.43505
G1 X87.413 Y104.419 E67.8002
G1 X86.753 Y104.275 E67.87316
G1 X86.171 Y103.921 E67.94673
G1 X85.274 Y102.996 E68.08588
G1 X84.864 Y101.733 E68.2293
G1 X84.863 Y96.076 E68.84025
G1 X85.007 Y95.416 E68.91321
G1 X85.361 Y94.834 E68.98678
G1 X86.285 Y93.938 E69.12578
G0 F7200 X86.497 Y94.289
G1 F1800 X87.613 Y93.927 E69.25249
G1 X90.981 Y93.927 E69.61624
G1 X91.792 Y94.203 E69.70876
G1 X92.716 Y95.153 E69.85189
G1 X93.082 Y96.275 E69.97935
G1 X93.083 Y101.826 E70.57885
G1 X92.962 Y102.379 E70.63999
G1 X92.668 Y102.863 E70.70115
G1 X91.849 Y103.657 E70.82435
G1 X90.733 Y104.019 E70.95106
G1 X87.457 Y104.019 E71.30486
G1 X86.904 Y103.898 E71.366
G1 X86.42 Y103.604 E71.42716
G1 X85.626 Y102.785 E71.55036
G1 X85.264 Y101.671 E71.67686
G1 X85.263 Y96.12 E72.27637
G1 X85.384 Y95.567 E72.33751
G1 X85.678 Y95.083 E72.39867
G1 X86.497 Y94.289 E72.52186
G0 F7200 X86.708 Y94.641
G1 F1800 X87.675 Y94.327 E72.63167
G1 X90.914 Y94.327 E72.98148
G1 X91.572 Y94.551 E73.05655
G1 X92.365 Y95.366 E73.17936
G1 X92.682 Y96.338 E73.28978
G1 X92.683 Y101.826 E73.88248
G1 X92.573 Y102.286 E73.93356
G1 X92.39 Y102.576 E73.9706
G1 X91.638 Y103.305 E74.08371
G1 X90.671 Y103.619 E74.19351
G1 X87.457 Y103.619 E74.54062
G1 X86.997 Y103.509 E74.59171
G1 X86.707 Y103.326 E74.62874
G1 X85.978 Y102.574 E74.74185
G1 X85.664 Y101.608 E74.85156
G1 X85.663 Y96.12 E75.44426
G1 X85.773 Y95.66 E75.49534
G1 X85.956 Y95.37 E75.53237
G1 X86.708 Y94.641 E75.64549
G0 F7200 X86.919 Y94.993
G1 F1800 X87.737 Y94.727 E75.73839
G1 X90.847 Y94.727 E76.07427
G1 X91.352 Y94.899 E76.13188
G1 X92.014 Y95.579 E76.23438
G1 X92.282 Y96.401 E76.32775
G1 X92.283 Y101.786 E76.90933
G1 X92.224 Y102.09 E76.94278
G1 X92.112 Y102.289 E76.96744
G1 X91.427 Y102.953 E77.07047
G1 X90.609 Y103.219 E77.16337
G1 X87.497 Y103.219 E77.49947
G1 X87.193 Y103.16 E77.53291
G1 X86.994 Y103.048 E77.55757
G1 X86.33 Y102.363 E77.6606
G1 X86.064 Y101.545 E77.7535
G1 X86.063 Y96.16 E78.33508
G1 X86.122 Y95.856 E78.36853
G1 X86.234 Y95.657 E78.39319
G1 X86.919 Y94.993 E78.49622
G0 F7200 X87.13 Y95.345
G1 F1800 X87.8 Y95.127 E78.57231
G1 X90.847 Y95.127 E78.90139
G1 X91.065 Y95.178 E78.92557
G1 X91.663 Y95.792 E79.01814
G1 X91.882 Y96.464 E79.09447
G1 X91.883 Y101.786 E79.66924
G1 X91.834 Y102.002 E79.69317
G1 X91.216 Y102.601 E79.78612
G1 X90.546 Y102.819 E79.86221
G1 X87.497 Y102.819 E80.1915
G1 X87.281 Y102.77 E80.21542
G1 X86.682 Y102.152 E80.30837
G1 X86.464 Y101.482 E80.38447
G1 X86.463 Y96.16 E80.95924
G1 X86.512 Y95.944 E80.98316
G1 X87.13 Y95.345 E81.07611
G0 F7200 X87.341 Y95.697
G1 F1800 X87.863 Y95.527 E81.1354
G1 X90.847 Y95.527 E81.45768
G1 X91.312 Y96.005 E81.5297
G1 X91.482 Y96.527 E81.58899
G1 X91.483 Y101.786 E82.15696
G1 X91.005 Y102.249 E82.22883
G1 X90.483 Y102.419 E82.28812
G1 X87.497 Y102.419 E82.61061
G1 X87.034 Y101.941 E82.68248
G1 X86.864 Y101.419 E82.74177
G1 X86.863 Y96.16 E83.30974
G1 X87.341 Y95.697 E83.38161
G0 F7200 X87.663 Y96.428
G1 F1800 X87.863 Y96.327 E83.40581
G1 X90.581 Y96.327 E83.69936
G1 X90.682 Y96.527 E83.72355
G1 X90.683 Y101.518 E84.26258
G1 X90.483 Y101.619 E84.28678
G1 X87.765 Y101.619 E84.58032
G1 X87.664 Y101.419 E84.60452
G1 X87.663 Y96.428 E85.14355
G0 F7200 X87.483 Y96.071
G1 F1800 X87.863 Y95.927 E85.18744
G1 X90.713 Y95.927 E85.49524
G1 X90.938 Y96.147 E85.52922
G1 X91.082 Y96.527 E85.57311
G1 X91.083 Y101.651 E86.1265
G1 X90.863 Y101.875 E86.16041
G1 X90.483 Y102.019 E86.2043
G1 X87.632 Y102.019 E86.51221
G1 X87.408 Y101.799 E86.54612
G1 X87.264 Y101.419 E86.59
G1 X87.263 Y96.295 E87.1434
G1 X87.483 Y96.071 E87.17731
G10
G0 F7200 X87.168 Y96.072
G0 X86.796 Y113.656
G11
G1 F1800 X91.852 Y113.656 E87.72335
G1 X94.47 Y114.546 E88.02199
G1 X94.786 Y114.746 E88.06238
G1 X97.279 Y117.313 E88.44884
G1 X98.282 Y120.385 E88.79785
G1 X98.283 Y127.318 E89.54662
G1 X97.863 Y129.254 E89.76057
G1 X96.753 Y131.074 E89.9908
G1 X94.607 Y133.156 E90.31372
G1 X91.55 Y134.147 E90.66079
G1 X86.885 Y134.147 E91.16461
G1 X84.957 Y133.727 E91.37772
G1 X83.137 Y132.617 E91.60795
G1 X81.053 Y130.469 E91.93117
G1 X80.064 Y127.418 E92.27756
G1 X80.063 Y120.485 E93.02632
G1 X80.483 Y118.549 E93.24028
G1 X81.593 Y116.729 E93.47051
G1 X83.739 Y114.647 E93.79343
G1 X86.796 Y113.656 E94.1405
G10
G0 F7200 X83.951 Y114.999
G11
G1 F1800 X86.86 Y114.056 E94.47077
G1 X91.785 Y114.056 E95.00267
G1 X94.341 Y114.925 E95.29423
G1 X94.499 Y115.025 E95.31443
G1 X96.928 Y117.526 E95.69096
G1 X97.882 Y120.448 E96.02293
G1 X97.883 Y127.275 E96.76024
G1 X97.486 Y129.105 E96.96248
G1 X96.44 Y130.82 E97.17943
G1 X94.395 Y132.804 E97.48715
G1 X91.486 Y133.747 E97.81742
G1 X86.929 Y133.747 E98.30958
G1 X85.106 Y133.35 E98.51107
G1 X83.391 Y132.304 E98.72803
G1 X81.405 Y130.257 E99.03605
G1 X80.464 Y127.354 E99.36564
G1 X80.463 Y120.528 E100.10284
G1 X80.86 Y118.698 E100.30508
G1 X81.906 Y116.983 E100.52203
G1 X83.951 Y114.999 E100.82975
G0 F7200 X84.163 Y115.351
G1 F1800 X86.924 Y114.456 E101.14322
G1 X91.718 Y114.456 E101.66097
G1 X94.212 Y115.304 E101.94546
G1 X96.577 Y117.739 E102.31207
G1 X97.482 Y120.511 E102.627
G1 X97.483 Y127.232 E103.35286
G1 X97.109 Y128.956 E103.54339
G1 X96.127 Y130.566 E103.74706
G1 X94.183 Y132.452 E104.03958
G1 X91.422 Y133.347 E104.35304
G1 X86.973 Y133.347 E104.83353
G1 X85.255 Y132.973 E105.02342
G1 X83.645 Y131.991 E105.2271
G1 X81.757 Y130.045 E105.51992
G1 X80.864 Y127.29 E105.8327
G1 X80.863 Y120.571 E106.55835
G1 X81.237 Y118.847 E106.74888
G1 X82.219 Y117.237 E106.95255
G1 X84.163 Y115.351 E107.24507
G0 F7200 X84.375 Y115.703
G1 F1800 X86.988 Y114.856 E107.54173
G1 X91.651 Y114.856 E108.04533
G1 X93.992 Y115.652 E108.31238
G1 X96.226 Y117.952 E108.65866
G1 X97.082 Y120.574 E108.95655
G1 X97.083 Y127.189 E109.67097
G1 X96.732 Y128.807 E109.84978
G1 X95.814 Y130.312 E110.04017
G1 X93.971 Y132.1 E110.31749
G1 X91.358 Y132.947 E110.61415
G1 X87.017 Y132.947 E111.08298
G1 X85.404 Y132.596 E111.26126
G1 X83.899 Y131.678 E111.45165
G1 X82.109 Y129.833 E111.72928
G1 X81.264 Y127.226 E112.02526
G1 X81.263 Y120.614 E112.73935
G1 X81.614 Y118.996 E112.91816
G1 X82.532 Y117.491 E113.10855
G1 X84.375 Y115.703 E113.38587
G0 F7200 X84.587 Y116.055
G1 F1800 X87.052 Y115.256 E113.66573
G1 X91.584 Y115.256 E114.15519
G1 X93.772 Y116 E114.40478
G1 X95.875 Y118.165 E114.73075
G1 X96.682 Y120.637 E115.01159
G1 X96.683 Y127.146 E115.71456
G1 X96.355 Y128.658 E115.88166
G1 X95.501 Y130.058 E116.05877
G1 X93.759 Y131.748 E116.32089
G1 X91.294 Y132.547 E116.60075
G1 X87.061 Y132.547 E117.05791
G1 X85.553 Y132.219 E117.22458
G1 X84.153 Y131.365 E117.40169
G1 X82.461 Y129.621 E117.66412
G1 X81.664 Y127.162 E117.9433
G1 X81.663 Y120.657 E118.64584
G1 X81.991 Y119.145 E118.81293
G1 X82.845 Y117.745 E118.99004
G1 X84.587 Y116.055 E119.25216
G0 F7200 X84.799 Y116.407
G1 F1800 X87.116 Y115.656 E119.51522
G1 X91.517 Y115.656 E119.99052
G1 X93.552 Y116.348 E120.22266
G1 X95.524 Y118.378 E120.52832
G1 X96.282 Y120.7 E120.79212
G1 X96.283 Y127.103 E121.48364
G1 X95.978 Y128.509 E121.63902
G1 X95.188 Y129.804 E121.80285
G1 X93.547 Y131.396 E122.04978
G1 X91.23 Y132.147 E122.31283
G1 X87.105 Y132.147 E122.75833
G1 X85.702 Y131.842 E122.91339
G1 X84.407 Y131.052 E123.07722
G1 X82.812 Y129.408 E123.3246
G1 X82.064 Y127.101 E123.58653
G1 X82.063 Y120.7 E124.27784
G1 X82.368 Y119.294 E124.43322
G1 X83.158 Y117.999 E124.59705
G1 X84.799 Y116.407 E124.84397
G0 F7200 X85.011 Y116.759
G1 F1800 X87.18 Y116.056 E125.09022
G1 X91.45 Y116.056 E125.55138
G1 X93.332 Y116.696 E125.76607
G1 X95.173 Y118.591 E126.05141
G1 X95.882 Y120.763 E126.29816
G1 X95.883 Y127.06 E126.97824
G1 X95.601 Y128.36 E127.12191
G1 X94.875 Y129.55 E127.27246
G1 X93.335 Y131.044 E127.50418
G1 X91.166 Y131.747 E127.75043
G1 X87.149 Y131.747 E128.18427
G1 X85.851 Y131.465 E128.32772
G1 X84.661 Y130.739 E128.47827
G1 X83.164 Y129.196 E128.71045
G1 X82.464 Y127.037 E128.95558
G1 X82.463 Y120.743 E129.63533
G1 X82.745 Y119.443 E129.77899
G1 X83.471 Y118.253 E129.92954
G1 X85.011 Y116.759 E130.16127
G0 F7200 X85.223 Y117.111
G1 F1800 X87.244 Y116.456 E130.39071
G1 X91.383 Y116.456 E130.83773
G1 X93.112 Y117.044 E131.03496
G1 X94.822 Y118.804 E131.29998
G1 X95.482 Y120.826 E131.5297
G1 X95.483 Y127.017 E132.19833
G1 X95.224 Y128.211 E132.33028
G1 X94.562 Y129.296 E132.46755
G1 X93.123 Y130.692 E132.68407
